X:1
T:Title
%%score ( 1 2 ) { ( 3 5 ) | 4 }
L:1/8
Q:1/4=107
M:4/4
K:A
V:1 treble nm="Grand Piano, Soprano"
V:2 treble 
V:3 bass nm="Choir Pad, St. Saviour (Gaul), 77.77.77.7"
V:5 bass 
V:4 bass 
V:1
 [CE]2 [EA]2 [DF]2 [DF]2 | [DE]2 [CE]2 [DF]4 | [DF]2 [FB]2 [FA]2 [EG]2 | [EF]2 [^DF]2 [EG]4 | %4
w: By~Alfred~Robert~Gaul~(1837\-1913) * * *||||
 G2 [Gc]2 [Gc]2 [GB]2 | G2 [Gc]2 [GB]4 | [EB]2 [Ge]2 [F^d]2 [Ee]2 | [Gc]2 c-[Ec] [^DB]4 | %8
w: ||||
 [Cc]2 [FA]2 [EG]2 [FA]2 | [^DG]2 [FG]2 [EG]4 | [Cc]2 [FA]2 [EG]2 [EA]2 | [EF]2 [^DF]2 [EG]4 | %12
w: ||||
 E2 [EA]2 [DF]2 [DF]2 | [DE]2 [CE]2 [DF]4 | [Fd]2 [FB]2 [EB]2 [EA]2 | [EA]2 [EG]2 [EA]4 | %16
w: ||||
 [Dd]2 [FB]2 [EB]2 [EA]2 | [EA]2 [EG]2 [EA]4- | [EA]4 z4 |] %19
w: |||
V:2
 x8 | x8 | x8 | x8 | x8 | x8 | x8 | z2 .F2 z4 | x8 | x8 | x8 | x8 | x8 | x8 | x8 | x8 | x8 | x8 | %18
 x8 |] %19
V:3
 A,2 A,2 A,2 B,2 | B,2 A,2 A,4 | A,2[K:treble] D2 C2 C2 | C2 B,2 B,4 | C2 C2 ^D2 D2 | E2 C2 ^D4 | %6
 E2[K:bass] B,2 B,2 B,2 | B,2 ^A,2 B,4 | A,2[K:treble] C2 C2 C2 | C2 =C2 ^C4 | A,2 C2 C2 C2 | %11
 B,2 B,2 B,4 | C2 A,2 A,2 B,2 | B,2 A,2 A,4 | z2 D2 z4 | B,2 B,2 A,4 | z2 D2[K:treble] z4 | %17
 B,2 B,2 C4- | C4 z4 |] %19
V:4
 A,,2 C,2 D,2 B,,2 | G,,2 A,,2 D,4 | D,2 B,,2 F,2 C,2 | A,,2 B,,2 E,4 | C,2 E,2 G,2 G,2 | %5
 C,2 E,2 G,4 | G,2 E,2 z2 G,2 | E,2 F,2 B,,4 | F,2 A,,2 C,2 F,2 | G,2 G,,2 C,4 | %10
 F,2 A,,2 C,2 A,,2 | B,,2 B,,2 E,4 | A,,2 C,2 D,2 B,,2 | G,,2 A,,2 D,4 | .B,,4 G,,2 A,,2 | %15
 E,2 D,2 C,4 | .B,,4 G,,2 A,,2 | E,2 E,2 A,,4- | A,,4 z4 |] %19
V:5
 x8 | x8 | x2[K:treble] x6 | x8 | x8 | x8 | x2[K:bass] x6 | x8 | x2[K:treble] x6 | x8 | x8 | x8 | %12
 x8 | x8 | D2 z A,, D2 C2 | x8 | B,2 z A,,[K:treble] D2 C2 | x8 | x8 |] %19

